svgs/duotone/pie.svg

<svg xmlns="http://www.w3.org/2000/svg" viewBox="0 0 576 512"><!-- Font Awesome Pro 6.0.0-alpha2 by @fontawesome - https://fontawesome.com License - https://fontawesome.com/license (Commercial License) --><defs><style>.fa-secondary{opacity:.4}</style></defs><path d="M528.055 302.383L486.777 426.125C482.527 439.125 470.277 448 456.527 448H118.652C104.777 448 92.652 439.125 88.277 426.125L47 302.383C69.32 298.879 83.664 288.902 93.402 281.625C102.527 274.75 106.277 272 117.027 272C127.652 272 131.402 274.75 140.527 281.625C152.402 290.5 170.402 304 202.402 304S252.402 290.5 264.277 281.625C273.277 274.75 277.152 272 287.777 272S302.152 274.75 311.152 281.625C323.152 290.5 341.027 304 373.027 304S423.027 290.5 434.902 281.625C443.902 274.75 447.652 272 458.402 272C469.027 272 472.652 274.75 481.777 281.625C491.412 288.902 505.738 298.881 528.055 302.383Z" class="fa-secondary"/><path d="M544 240C537.5 240 533.625 238.75 529.5 236.5C494.875 136.125 400.125 64 288 64S81 136.25 46.5 236.5C42.375 238.875 38.5 240 32 240C14.375 240 0 254.375 0 272S14.375 304 32 304C64 304 82 290.5 93.875 281.625C103 274.75 106.75 272 117.5 272C128.125 272 131.875 274.75 141 281.625C152.875 290.5 170.875 304 202.875 304S252.875 290.5 264.75 281.625C273.75 274.75 277.625 272 288.25 272S302.625 274.75 311.625 281.625C323.625 290.5 341.5 304 373.5 304S423.5 290.5 435.375 281.625C444.375 274.75 448.125 272 458.875 272C469.5 272 473.125 274.75 482.25 281.625C494 290.5 512 304 544 304C561.625 304 576 289.625 576 272S561.625 240 544 240ZM206.25 151.125L190.25 183.125C180.875 202.001 152.125 188 161.75 168.875L177.75 136.875C187.25 118.001 215.75 132.25 206.25 151.125ZM304 176C304 197.125 272 197.125 272 176V144C272 122.875 304 122.875 304 144V176ZM385.75 183.125L369.75 151.125C360.25 132.25 388.875 118.001 398.25 136.875L414.25 168.875C423.875 187.875 395.125 202.001 385.75 183.125Z" class="fa-primary"/></svg>

<svg xmlns="http://www.w3.org/2000/svg" viewBox="0 0 576 512"><!--! Font Awesome Pro 6.0.0-alpha3 by @fontawesome - https://fontawesome.com License - https://fontawesome.com/license (Commercial License) --><defs><style>.fa-secondary{opacity:.4}</style></defs><path class="fa-primary" d="M544 240c-6.5 0-10.38-1.25-14.5-3.5C494.9 136.1 400.1 64 288 64S81 136.3 46.5 236.5C42.38 238.9 38.5 240 32 240c-17.62 0-32 14.38-32 32s14.38 32 32 32c32 0 49.1-13.5 61.88-22.38C103 274.8 106.8 272 117.5 272c10.62 0 14.38 2.75 23.5 9.625C152.9 290.5 170.9 304 202.9 304s50-13.5 61.88-22.38C273.8 274.8 277.6 272 288.3 272s14.38 2.75 23.38 9.625C323.6 290.5 341.5 304 373.5 304s50-13.5 61.88-22.38C444.4 274.8 448.1 272 458.9 272c10.62 0 14.25 2.75 23.38 9.625C493.1 290.5 512 304 544 304c17.62 0 32-14.38 32-32S561.6 240 544 240zM206.3 151.1l-16 32C180.9 202 152.1 187.1 161.7 168.9l16-32C187.2 117.1 215.8 132.3 206.3 151.1zM304 176c0 21.12-32 21.12-32 0v-32c0-21.12 32-21.12 32 0V176zM385.7 183.1l-16-32c-9.5-18.88 19.19-33.14 28.56-14.27l16 32C423.9 187.9 395.1 202 385.7 183.1z"/><path class="fa-secondary" d="M528.5 302.4l-41.28 123.7C483 439.1 470.8 448 457 448H119.1c-13.88 0-25.1-8.875-30.37-21.88L47.47 302.4c22.32-3.504 36.66-13.48 46.4-20.76C103 274.8 106.8 272 117.5 272c10.62 0 14.38 2.75 23.5 9.625C152.9 290.5 170.9 304 202.9 304s50-13.5 61.88-22.38C273.8 274.8 277.6 272 288.3 272s14.38 2.75 23.38 9.625C323.6 290.5 341.5 304 373.5 304s50-13.5 61.88-22.38C444.4 274.8 448.1 272 458.9 272c10.62 0 14.25 2.75 23.38 9.625C491.9 288.9 506.2 298.9 528.5 302.4z"/></svg>
